!!!OTL: Einst ein Jaeger wollte jagen einen Gemsbock silbergrau
!!!ARE: Europa, Mitteleuropa, Deutschland, Baden, Freiburg i. Brsg.
!!!SCT: D0096
!!!YEM: Copyright 1995, estate of Helmut Schaffrath.
**kern
*ICvox
*Ivox
*M6/4
*k[b-]
*F:
{4.c
8d
=1
4c
4f
2f
4.c
8d
=2
4c
4a
2a}
{4.b-
8a
=3
4g
4c
4g
4c
4g
4a
=4
2.f
4r}
{4.c
8d
=5
4c
4f
2f
4.c
8d
=6
4c
4a
2a}
{4.b-
8a
=7
4g
4c
4g
4c
4g
4a
=8
2f
4r}
{4c
4f
4a
=9
4b-
4dd
2dd
4.cc
8b-
=10
4a
4c
2a}
{4.b-
8a
=11
4g
4c
4g
4c
4g
4a
=12
2f
2r}
==
!!!AGN: Liebes - Lied, abgewiesener Liebhaber
!! Inzipit = Variante zum Lied
!!!ONB: ESAC (Essen Associative Code) Database: DVA
!!!AMT: compound duple
!!!AIN: vox
!!!EED: Helmut Schaffrath
!!!EEV: 1.0
*-
